X:1
L:1/4
M:6/4
K:G
 B3 A B c | G c G E G c | B3 A B ^c | d F D F A d || d2 d f3/2 g/ a | c3/2 e/ c g e c | 
 d3/2 e/ d f3/2 g/ a | a f d a f d || g3/2 a/ g f g f | e c e g e c | a f d e ^c A | d2 D F A d :| 
 B G B A F A | G c G E G c | B G B A F A | d F D F A d || d3/2 f/ d f3/2 g/ a | c3/2 e/ c g e c | 
 d3/2 e/ d f3/2 g/ a | a f d a f d || g a b f g a | e c e g e c | a/g/f/e/ d e/d/c/B/ A | 
 d2 D F A d ||
